!!!OTL: 356. Ende der Franzosenherrschaft. 1813 (1871.)
!!!ARE: Europa, Mitteleuropa, Deutschland, Hessen, Wetterau
!!!SCT: E0356B
!!!TXL: @@DE
!!!YEM: Copyright 1995, estate of Helmut Schaffrath.
**kern	**text
*ICvox	*
*M2/4	*
*k[f#c#]	*
*D:	*
=1	=1
!LO:TX:a:t=Kräftig.	!
!LO:TX:a:t=Aus der Wetterau. 1892.	!
{4a	Jhr
4a	Fran-
=2	=2
8ddL	-ʒo-
8aJ	.
8f#L	-ſen
8aJ	.
=3	=3
4.a	geht
8g	nach
=4	=4
(4g	Haus,
4f#)}	.
=5	=5
{4a	weil
4a	jetʒt
=6	=6
8ddL	eu-
8aJ	.
8f#L	-re
8aJ	.
=7	=7
4.a	Ʒeit
8g	iſt
=8	=8
(4g	aus.
4f#)}	.
=9	=9
{8d	Laßt
8f#	mit
8f#	eu-
8a	-ren
=10	=10
8a	Frei-
8e	-heits-
8e	-waf-
8e}	-ſen
=11	=11
{8e	euch
8g	nicht_im
8g	deut-
8b	-ſchen
=12	=12
8b	Reich
8a	er-
8a	-tap-
8a}	-pen,
=13	=13
{8.a	denn
16a	die
8a	Deutſchen
8dd	.
=14	=14
8b	ſein
8b	mit
4b}	Macht
=15	=15
{8.cc#	ge-
16cc#	-gen
8cc#	Frank-
8ee	-reich
=16	=16
8ee	auf-
8dd	-ge-
4dd}	-bracht.
=17	=17
{8.a	denn
16a	die
8a	Deutſchen
8dd	.
=18	=18
8b	ſein
8b	mit
4b}	Macht
=19	=19
{8.cc#	ge-
16cc#	-gen
8cc#	Frank-
8ee	-reich
=20	=20
8ee	auf-
8dd	-ge-
4dd}	-bracht.
==	==
!!!AGN: historisches Lied, Krieg gegen die Franzosen (1813 und 1871)
!!!ONB: ESAC (Essen Associative Code) Database: ERK1
!!!AMT: simple duple
!!!AIN: vox
!!!EED: Helmut Schaffrath
!!!EEV: 1.0
!!!GTL: Historische Lieder
!!!URL-scan: https://rosdok.uni-rostock.de/mcrviewer/recordIdentifier/rosdok_ppn745177662/iview2/phys_0173.iview2?x=-554.0825755873236&y=1199.4321707517374&scale=0.46959934367803174&rotation=0&layout=singlePageLayout
!!!ENC: Anna Maria Matuszewska
!!!EEV: 2024/09/12
*-	*-
